storage/app/icons/phosphoricons/bold/columns-plus-left-bold.svg

<svg xmlns="http://www.w3.org/2000/svg" fill="currentColor" viewBox="0 0 256 256"><path d="M124 28h-24a20 20 0 0 0-20 20v160a20 20 0 0 0 20 20h24a20 20 0 0 0 20-20V48a20 20 0 0 0-20-20m-4 176h-16V52h16Zm80-176h-24a20 20 0 0 0-20 20v160a20 20 0 0 0 20 20h24a20 20 0 0 0 20-20V48a20 20 0 0 0-20-20m-4 176h-16V52h16ZM68 128a12 12 0 0 1-12 12h-8v8a12 12 0 0 1-24 0v-8h-8a12 12 0 0 1 0-24h8v-8a12 12 0 0 1 24 0v8h8a12 12 0 0 1 12 12"/></svg>

<svg xmlns="http://www.w3.org/2000/svg" viewBox="0 0 256 256" fill="currentColor"><path d="M124,28H100A20,20,0,0,0,80,48V208a20,20,0,0,0,20,20h24a20,20,0,0,0,20-20V48A20,20,0,0,0,124,28Zm-4,176H104V52h16ZM200,28H176a20,20,0,0,0-20,20V208a20,20,0,0,0,20,20h24a20,20,0,0,0,20-20V48A20,20,0,0,0,200,28Zm-4,176H180V52h16ZM68,128a12,12,0,0,1-12,12H48v8a12,12,0,0,1-24,0v-8H16a12,12,0,0,1,0-24h8v-8a12,12,0,0,1,24,0v8h8A12,12,0,0,1,68,128Z"/></svg>
